X: 13721
T: Forbes Morrison
R: strathspey
M: 4/4
K: Amajor
|:c>AE>D C<EA,>E|D<F B>A (3GFE (3fed|
c<AE>D C<EA,>E|1 (3DCB, (3fed (3cBA (3aed:|2 (3DCB, (3fed c<A c>e||
a>fg>e f<de>c|d>Bc>A (3Bcd (3efg|a>fe>g f<de>F|(3EFG (3fed c<Ac>e|
a>fg>e f<de>c|d>Bc>A (3Bcd (3efg|(3aga (3efg (3aed (3cBA|(3EFG (3fed (3cBA (3aed|

